X:73
T:Malbrouk. THO5.073, La
M:6/8
L:1/8
B:Thompson's Complete Collection of 200 Favourite Dances Vol.5
F:https://www.libraryofdance.org/manuals/1780c-Thompson-Compleat-5.pdf
Z:vmp. Peter Dunk 2024
Q:3/8=100
C:"1785"
K:G
G/A/|B2B BAB|c3 BdB|A2A AGA|B2G G2G/A/|
B2B BAB|c3 B2d|B2G A2A|G3-G2:|
B/c/|d2B e2e|d3-d2 B/c/|d2B e2e|d3-d2 G/A/|
B2B BAB|c3 BdB|A2A AGA|B2G G2G/A/|
B2B BAB|c3 B2d|B2G A2A|G3-G2|]
W:
W:The 1st Gent turn his Partner with his right hand half round
W:then turn the 2nd Lady with his left hand
W:and his partner with his right ./.
W:the 2nd Gent do the same ./:
W:Lead down the middle, up again and cast off :/.
W:Lead outsides :/:

